public/flags/en.svg

<svg width="51" height="51" viewBox="0 0 51 51" fill="none" xmlns="http://www.w3.org/2000/svg">
<g clip-path="url(#clip0_1_429)">
<path d="M49.6501 41.4097H1.37456C0.898485 41.4097 0.512451 41.0237 0.512451 40.5476V9.51323C0.512451 9.03716 0.898485 8.65112 1.37456 8.65112H49.6502C50.1263 8.65112 50.5123 9.03716 50.5123 9.51323V40.5476C50.5122 41.0237 50.1262 41.4097 49.6501 41.4097Z" fill="#41479B"/>
<path d="M50.5123 9.51323C50.5123 9.03716 50.1262 8.65112 49.6501 8.65112H45.7932L29.8226 19.1147V8.65112H21.2019V19.1147L5.23138 8.65112H1.37456C0.898485 8.65112 0.512451 9.03716 0.512451 9.51323V11.7428L14.2144 20.72H0.512451V29.3407H14.2144L0.512451 38.318V40.5476C0.512451 41.0237 0.898485 41.4097 1.37456 41.4097H5.23148L21.2021 30.9462V41.4097H29.8228V30.9462L45.7934 41.4097H49.6503C50.1264 41.4097 50.5125 41.0237 50.5125 40.5476V38.318L36.8105 29.3408H50.5123V20.7201H36.8103L50.5123 11.7428V9.51323Z" fill="#F5F5F5"/>
<path d="M50.5123 22.4442H28.0986V8.65112H22.9261V22.4442H0.512451V27.6166H22.9261V41.4097H28.0986V27.6166H50.5123V22.4442Z" fill="#FF4B55"/>
<path d="M17.988 29.3408L0.537109 40.6686C0.598144 41.0849 0.941405 41.4098 1.3747 41.4098H2.5621L21.1548 29.3409H17.988V29.3408Z" fill="#FF4B55"/>
<path d="M34.3399 29.3408H31.1731L49.7388 41.3919C50.1715 41.3458 50.513 40.9925 50.513 40.5476V39.8388L34.3399 29.3408Z" fill="#FF4B55"/>
<path d="M0.513184 10.465L16.3119 20.7202H19.4786L1.01543 8.73529C0.720507 8.8723 0.513184 9.16673 0.513184 9.51331V10.465Z" fill="#FF4B55"/>
<path d="M32.9903 20.7203L50.4831 9.36513C50.4104 8.9626 50.0745 8.65137 49.651 8.65137H48.4159L29.8235 20.7203H32.9903Z" fill="#FF4B55"/>
</g>
<defs>
<clipPath id="clip0_1_429">
<rect width="50" height="50" fill="white" transform="translate(0.511719 0.0305176)"/>
</clipPath>
</defs>
</svg>

<svg xmlns="http://www.w3.org/2000/svg" width="51" height="51" fill="none"><g clip-path="url(#a)"><path fill="#41479B" d="M49.65 41.41H1.375a.86.86 0 0 1-.863-.862V9.513c0-.476.386-.862.863-.862H49.65c.476 0 .862.386.862.862v31.035a.86.86 0 0 1-.862.862"/><path fill="#F5F5F5" d="M50.512 9.513a.86.86 0 0 0-.862-.862h-3.857l-15.97 10.464V8.65h-8.621v10.464L5.232 8.65H1.374a.86.86 0 0 0-.863.862v2.23l13.702 8.977H.512v8.62h13.702L.512 38.319v2.23c0 .476.386.862.863.862H5.23l15.971-10.464V41.41h8.62V30.946L45.794 41.41h3.857a.86.86 0 0 0 .863-.862v-2.23L36.81 29.341h13.701v-8.62H36.81l13.702-8.978z"/><path fill="#FF4B55" d="M50.512 22.444H28.1V8.651h-5.173v13.793H.512v5.173h22.414V41.41H28.1V27.617h22.413z"/><path fill="#FF4B55" d="M17.988 29.34.538 40.67a.85.85 0 0 0 .837.74h1.187l18.593-12.068zM34.34 29.34h-3.167L49.74 41.393a.854.854 0 0 0 .774-.844v-.71zM.513 10.465 16.312 20.72h3.167L1.015 8.735a.86.86 0 0 0-.502.778zM32.99 20.72 50.483 9.365a.85.85 0 0 0-.832-.714h-1.235l-18.592 12.07z"/></g><defs><clipPath id="a"><path fill="#fff" d="M.512.03h50v50h-50z"/></clipPath></defs></svg>
